-----BEGIN PGP SIGNATURE-----

iQIzBAABCAAdFiEEc+tbA4yQN8Kp0pD/7aQIiVMRQW4FAmoDV54ACgkQ7aQIiVMR
QW6czQ//Z63gSQOMN7m/kFKbALB1EyuVjWio2ZXPmnQoI+jUl38U1LamSEbLlfi0
1iFGAcyHE71NKEi6JDTRH3eUoXBeBEiZunHYjd+n3oP3UBax3vYFU6g9w3aushJ4
m7tkZoEwT65+d2gx9v7RU5O9Sa6visCkD0vtEtg1OQEGNjuIu/kKsfO87+GIZ5rV
9wCrVAERZ6Q5uK4pN+1p0VrzGzakDfsFH0r9ZppmU+tKIhQXRh87g8nGyjMsizqK
KvVlXf8CK60LVd7YdQnGplRyCUZQjL5WS7BPLSHY5sCK6mS9y4vi3vHFiLD+88Ps
STxSzi+b65IyHwmlfjMVITsgPpkLEiRfEkybfi49pX0le62WZJBreJMSuPqU7A2w
3AXX121J9YXCfYabbw4VlGKuLx7GsB3VY80oJ94e3tr2GYSfuzCS9CGaMBh/KKOA
dsK7eYr4wF4sdQDRgKXuTHSNm+Ur5VNc/JiFDLV1kAXOfNxZ3gRaNEmiyk/tyUtu
hk8R6jhkGgDV0NrbwMIlB4fjnzKs9JjOYLSp9QkqiegHw3kA4VhS8pLHAwA/n8JZ
ZNL5CrjxujOMM3Q7lTz11SqFf/Bzh91zopbMQVjKVeoTPNHz6apw3AYLPuZbJREI
EHSPjEqoYqOeU2cRLlyoxzxOD15F7dPXX/pT8IzSPAzLFmDehKs=
=UxFS
-----END PGP SIGNATURE-----
