-----BEGIN PGP SIGNATURE-----

iQIzBAABCAAdFiEEc+tbA4yQN8Kp0pD/7aQIiVMRQW4FAmoDV4kACgkQ7aQIiVMR
QW4PiBAAkOpUeNjlgPDibjXm8gH/qFBLuYkjYjozVgXTvO6m3FMP6Ciu6gRVCsv7
XxyKJyiAKWZtaGqdcGJfMS3e9DQwISZMvWIZ4SPZNgBZo8BlI97r7qR8DbArww5T
dXVVP/sEafEfQBhu2yIGJ0S5cDwaNjBAKyMQwc8DHwlqP6Jz5s6cRSKiOTYMa6FS
XPX5mrc5ZSsVVb5JyODBaqHe7CWULSB2abY1lAQ+XeNQlo67u6gAW5AeW7IrFFt1
DMYL4u5BJMWeSJdObWw8lHuFr9FQY8N/HlEgod+A3ZRKo1SMQTIPOfzrOqkyTCM/
RX6f6MoVIxPwiRMwcWXwd84zk2cKg5uUowHtGgU85uvIFrjpx7e4fya9Wk4XrcdM
kEaal+bwkmeRa43+apZPNBwdXiPC6q/LUqJ97cMhPaIbEi1dlP7gH0u6HUofoytX
lx8PXEBj/pGiBF3DZCcqpYp1hjlZmuw1RU8a9Iw821i4aStc2Pm3itCjJJ5nCWvM
XihdIc/A6XxOlSGZ+NxLji5x+LsGihJ858bAWX5KjlCRFiCZfSafqbPJBZHgJfAq
0saAunX8GOMAr3fygv4nl9Eqq86RV1SIo0NtQxHYHi3ghV23qOcarF4dCwVS5BZn
QVVZXP5Yo/JrXB9oZKB51PbPJUXpMW4TJco0qY7EmOMwKT0AXPw=
=OeCn
-----END PGP SIGNATURE-----
