-----BEGIN PGP SIGNATURE-----

iQIzBAABCAAdFiEEc+tbA4yQN8Kp0pD/7aQIiVMRQW4FAmoxv9MACgkQ7aQIiVMR
QW5yCxAAhvIxhMQ7441xSQVNWfjNoTCVsarVXr0Sn2koxXKuaMSGeEbyK2vJSOtB
0MLf0AKhhUQKsRtHYmqBXRnwXsWTIR+q34z1bSva2rja+7QJRDHWVD9YKE0lS8Fi
qDuMO5GYWIRV3soyqbInw3npW7HGKtgtezwpDd1AseyKm96eLVjeOPk7Yr9cf5uN
fZjYSwWp7pGlu9VDTVwDoKxfSOr/dOZno3TksXGcsoxNs7ZZJHISL9Qo7wSTA7eB
7/rjiJ+VYfL1TPd2CQn/PJAMDN+pMCTplOHjQQ/IQGS75xJeJzHppEdOyZf2X41R
hJ1bIDZnbpR/lta50J2s7aNaqDVcKUYRNgnp7A1Qc8ccUc4MOg2S15u3NYf1oywD
1JbQRzmDkcfQHakSkMArKdue7u4sj4CarqUgz0ULuquPyC/tauRw0W15oXbByQuC
HY2yU44+kmVczGK6xrEtpJe6K/LCcPrODSF/lh/b0d1QSuNbRET/5ot4oEGca9y+
4h1Ueu5XU55t1oCdQsLsI4cPiswDRXngsN2Bxs9qiGLn7PL+U5WskkSNzXo3eDvI
2WIWo+1HxnoQkXpmwcGtM1qu0IFrC4e1oKwuHP7Wim0LSJRwW4zWCQPrDr1FeAyr
Dtq1gHTph6QqeD19HZD2vb5l6n4NDvBbvRgV1Hd7Rf69n4F8Yl0=
=P5s9
-----END PGP SIGNATURE-----
