-----BEGIN PGP SIGNATURE-----

iQIzBAABCAAdFiEEc+tbA4yQN8Kp0pD/7aQIiVMRQW4FAmpbskgACgkQ7aQIiVMR
QW7q/xAAt6opMaUJCZtpyKoaHltoIxDl1MB3ovnPBReRVDmQsBSlMlFvmJtIfkR9
hGFw6bqiUauD32eidaxvuUM71AO5wrOUosbqt9GSmcQBbOXwvcrSr0OrAKXPMsJy
0YKpBSNCiEgfc4q39uEL1AjUwSNhnONBQ0nVi86xZ3+0F8c7kxTown1J1L4BY1qk
6EFd1aocxK27uWR2EpbtlfAdhOwrta8y/CTlxeN0xONqQQpBkciKRmdMSDe5EurD
awMTph5xeNQAmM6vhttJ1ryb8Qu+4QR657F6d+dVcBWVuH17OwIGYph7oH85PIG1
/Gl1cEhDhoI2fkSPoxK8RiIOWwkK1mK3DHHzB60x1qCMa2jzATMst7+FAZCKX+NJ
osj9QpvtL6StJz81BTZvpXq2AcGDm9+50XMqx6WEY4kdQuoYzdJPTEg48sBeazQr
UHuFYzEfF4QXiSDtx8fk+jblF0XukBVLbR57UBisc/nI3M1y7tAL3j0i8jt1Qxr2
YIt9lgOOCuG8O6beJAUs5FxE3uuXX2LZocAA5AQ+1hARyKJ3KXpNKVizXOkNICX1
PHm0zVJFgGFECdQzmKtTnnkRwwMrKtQ2xB5TQ/F+lQ2ihn80NfZDlqrNJNLldock
Iw9wJk+Na3VXa10NBf2nhyNP62yrStAHYFmL1m6jWDCM/4LxEjo=
=LoZc
-----END PGP SIGNATURE-----
