-----BEGIN PGP SIGNATURE-----

iQIzBAABCAAdFiEEc+tbA4yQN8Kp0pD/7aQIiVMRQW4FAmmMtSkACgkQ7aQIiVMR
QW7LQw/9E+2UJIPDdhw2n4b3V8E6Wu54vZi2yXkVFWeakxzm5qjBKU4TdG9gL9lC
+OiDL1/sGns04lWxgN+UwoMPsdq/0xofZ3rvauUQR7Fr4sUYQvk1QBF8hG0aK3FE
7exWR60tt/9owvJLZg+R74kC1EmgdRagQFNbDvrvklu9SlA7XwsekSdVOfjSoCIv
zPnIlE6BKEO6QOkcY0eUj4raxFaO4boT4uNhdwLul8yUUk84gbj3AwQaMTqM+kkN
o+ZFckiFmliPf6scdL4jJ6dHeEl6fQUbSlh96PpSNnqigHFfVmECKLMqdLLI9FNP
+pXdmIX1wJd4SanrBMHb6yPiwjNhhPKTjMHCbvO17DdYgShKjZ766l4A07uwtXpm
QZVLJoLPtCM74kTkK83jdbbQmU2W2+tmq6jj2k2ON+xjfFCJMBI17/H3ZEZeqfPt
iH5pSzKcH4VN7EJ77GQOcXqhq66f3h303am5LafQ5AeJC+DVvZlUN9P61r7elk0Q
fprQV4ETYaV2e9f4vK99Y/cHmjoGS4hyR/kVQANiFJyfiv8fW31vQRKA0eP4WNZs
0+iuR7qb8881Lv2nXO76QjhJRsrOkxOJmaaKvTHf2GlhWm7tFRLhtUGeyT453Os9
hkSCXMMPWwBYyiUdgBfjFJhMCaIZf5jKkbC3geusH7l6AeCnrz4=
=SI1w
-----END PGP SIGNATURE-----
