-----BEGIN PGP SIGNATURE-----

iQIzBAABCAAdFiEEc+tbA4yQN8Kp0pD/7aQIiVMRQW4FAmk7mhUACgkQ7aQIiVMR
QW7HIA/+IMPItVhGw7O4z4uNl1D7elCMPxNUuNdoMff5NUVLNasukK9I+fdtFbRu
h0GRG+6zsEZmb0xw342BPX+UDW8pCJMJWpirN8XEk8oDVV2yUKy8CXFg2nESFHcU
0ajvYftJkSsCnZe9VQEyktwqxsOsqkUMEoTTuIwIeEVnF/qygmvZMjWiqH6j+Uca
gDVOb1bKDvI6dTBNC2vxSt9tC40aOsI//hhrmqrIc+Ohslk+H+d7X8uU0fnRSKvY
QnSEO7toIUmqEcKnfu1zCGO88PHD4uEVp5ECqIQZKncqyZcgSyW4bouY1n30NzuQ
uXAuEdmKX18kiJduKPYbofMqRWqiYRdsikyJgVCA/TIaxzOTSoe6iv6ljfr1Bkib
FnwQ880Junw4e+8e9JEORstPZUe00UYa2w5wWT/Wot7X9fnYK3BOKo4OCWczpw/X
EITTxQZS3uHFmRnP+aTnCSAkq0Ovk7qub88ycVZFvGWGSOrhck+qni8hCExPMzLE
XC6NBJQG5VTuYVmN2Y5Pv41+fXH7QMW2683dfm8gIUGkeClCLxVM/A3qeQEp6O3w
jTMCAlgk3T3S7l3H17gAM+wfjFs98Ept+LMVjQCfCvwGyMzvGEdVyHVldA1E+EWC
uqP+6Eclgb7vCwpJLWN/Q9f0NTeeHbydr+YYwJtbRcP6XXPNqac=
=ZDno
-----END PGP SIGNATURE-----
