-----BEGIN PGP SIGNATURE-----

iQIzBAABCAAdFiEEc+tbA4yQN8Kp0pD/7aQIiVMRQW4FAmoDV1QACgkQ7aQIiVMR
QW5jfRAAuBaep0IyGytwJUQ19DLPiPetBa5wMkC/BSsFwDxRlsR5ezCBCHPsE+oU
L4Mkuvtsk6mUpGExt259+iH/2TLScfN40cBp+wjixpMfr3ETM7zk9j56uCLmdAgE
YLrFzbekA/SXT5xyY0q+NGYIUgwAtYDn43a4kc78VaBzN/qGmYUWy6pPiuy+TQvf
FpNKI80jEb7isKYIvCImqrhbjqxDAvnt74o888/usGdo/uvn7fghWJEAi1vKSk8v
bFBnU0m0ZmQdhVc5fK1ynmqMucsKrzxbYTdUQ5klWw58R3ZNd7kQNy8q1L3U0tvf
j9ojNb9VJX0+TwFJB5XIvW7kVkPjdIIpLg/EvSCTvnNQxouDQSuTY9ivaDW406Ds
2hs/8AWBte98gFCJN+s/8AOCcsF9ULZ1DZrLv0Org70wrskfpHqFa1BD69f7sn1Y
cIvR3uJL7otjvaLo7QQbU1ofCqk4/B7M0Cc5zS4rvk0KPr33Jo3IGW0NcgZ4Bvq3
/y9KmG3b6hGlHzSb9uvn4JprSREbNxMNIOeC5NCWBczT/siO/8bSASk69SMqbZvc
aBoI0ffl/hPHLIU1NsFI7haj2rvPt59a46sR9cSeGNB3ESsuKK5sLkWg2eJ2WqAn
q07tqrn10UEnTPtxEXXgAGHHFakYEVFltcIHyByg65mthvP3Axw=
=BbjG
-----END PGP SIGNATURE-----
