-----BEGIN PGP SIGNATURE-----

iQIzBAABCAAdFiEEc+tbA4yQN8Kp0pD/7aQIiVMRQW4FAmqjghUACgkQ7aQIiVMR
QW6Dgw/9FDH9VrdYoFCKYto8wzRO1eJd3s1WoaXo1uShLUO6y/AdxyO/tzMu8lvq
QBGgSPTlfqbQ+KOXAxSQxPMr9AVO21qhKS+KNJE1lP+5UgUPIxSbrRy3x+mOb2qb
wLEyj9qFVpgeMXnr0Te+ZBSibuzqDkgfaIv395eco/02hKG8mGtjGmCB0NlTwElj
60TAKd5Xg+4U0SYuwdLWvSuJH7+FkNN8q52hFE0xP219nLefTDgcVktoIPX3qOJX
4gelfoOfKOUvkehurNALC3r3QcfFLKPqA3F4+twWXRMpBAXr0o+wDZZr8kp+hNPu
gomT5YiJxLSTzgdHCiFpVaZg+H0VMbtWg1Mp6cOhFRzlqJnOhz4fclDoLO5W7t+0
fxo3FdhmffTtR7ClOGtiuhone//0gTxIoHh9KZZYmMhJ70/Xm0aunTrRb5SMhE9x
Aoz4NG72ovT6XlqOY7y4aBw4BTXszwAyaR6+9jGX+DCKX1uaddpzEiSiN987sFWM
y7T2pWtwsaxg73Hl/kR/Oaqu/cYlC/myrFzQ3rEr9sXkYxO49VSRhemIxF4pE3U+
WcSR10ueuz8o58lK5w2QmeHWv+cgm2lhWVbLf6CmLy1IlLBJY9P7VuwkqCMtovjh
/r1WppxdaAhPqcm6KqUg5TJpB3IvBFyMG8ye0duU5sp0T9tBvlI=
=1ebH
-----END PGP SIGNATURE-----
