-----BEGIN PGP SIGNATURE-----

iQIzBAABCAAdFiEEc+tbA4yQN8Kp0pD/7aQIiVMRQW4FAmqz800ACgkQ7aQIiVMR
QW4npA/7BzyZNqG/1BHCiyNW/MqlCf/vMzHdO6t7cUb1NGBXUOuFFNAAeciHrICd
mU3DZIlhfg4i6xPMQO8eOYX8YBvJsA1TVC2fI7RWO80uK3p/+RTKh1iA/RT2uK7B
K3V5IGUySO72EvomyUnbFm2EWkhoesgDgXiY4BkrHbu/b4at6OKTeZVbxPidfEx7
uwow5TBQmT0h0wD+aoeOUvQYLAm4dsTMYPgv37crosZHhL2VZINoSQTaL8N0eYkB
RmyeAufGj2Cj5/y+buWPXnffi/J3IX+QWuEnDx1P1iK6P1lAiCM13bJrc5F0doa/
O5/3wz6E051mSZRdDaUthEuN91JSMiqIrzRlxb5j1IvqDty7pJimvUG1TpvAn7EC
lSiIhKWDaYum4q1zD/LXMQm3vIyAU2DxpI0NTmq6ZJpX8pPTrNXYJkOGq6zFpWoJ
uhbFGnByUhZmth/+uSoy3kfAAaaMNopGbeW6HgfegtezXe7rlvSOFrnlqRa/k+8V
UmvWwrI5LsAolI0IvA2Oou/ij0ev2LHlcbXvLyQo7GS2TIJ7Tp3a1Q/UeMui3tyX
IjbW78iZ5INgr+sVQoJzfCTR1C88kRv5ZK/xNnRFiCqF1A/1p6HtPb/ETDg+IixQ
JtZvAQf6KU3zKCTI3tflACt2nkaXxylPITXyyFGX8jIcEJdc9Qw=
=+glF
-----END PGP SIGNATURE-----
