-----BEGIN PGP SIGNATURE-----

iQIzBAABCAAdFiEEc+tbA4yQN8Kp0pD/7aQIiVMRQW4FAmlo+bIACgkQ7aQIiVMR
QW5avw/9GKWxPvoT1riUMz8B4D/T/o4VSfOE8TlATlWWlSa+c3OQoXAuUlgHq71K
FYJH3+YqWEuQEZNzjfUlQlCIAJMNBtZM+eGOuKHr+83fZlhjiRPPjuvWptbfIodc
ZepvNPe8pGsiIBA8bxLAnqoYJJ86GQX4++99uh6duV81d3US3pkVghX2oriFz+TB
rLr1i7vn1uZYCSRBPrtiMc5YR5kLumX+kEFZZWqSIFGlO/29vOe9WUJOuPcS0xZM
ODXw1JFRkym8ZiuENjlZGu+Zrnew3KyR4InAcYNvKV9KCHgq+r2x6USz0ZyJsxAv
C/LmD08/tepBcQy41XN980bNHHkXUWi0kW4v0yHD1HEi14YnEuJUI5A68Y+7SIwa
8I1GJfGHcxv5obrvplHPK/S2/vJfkcVIZEzTHR8rzics027JCr+t1p0ZX5KIc5zY
iPVVZEm1S9nZqG4ue/myl0YRqyQJZ6psjot61HaH03l2cj+P2SqSAtmXcW7WgcIv
DG0oYEfZAOOLLmeH6kOy6hZDXpMnyvgoAgkW8tyLbPcHjdlBI/T0ZS8VZ7Id7WKA
y8SGT5BVQxFizARK6bAvAkdmvTn+9RKywSiQEFPMLKgYnSFUt4+uCwda4LvJhnqS
ppR2fD548giCIB7cg44/cZGqGOaGYIH9FQ/oCkV6vQLXRT33mR4=
=hW5a
-----END PGP SIGNATURE-----
