-----BEGIN PGP SIGNATURE-----

iQIzBAABCAAdFiEEc+tbA4yQN8Kp0pD/7aQIiVMRQW4FAmoFECQACgkQ7aQIiVMR
QW4Bwg/9HiYPv/Dt/sM/8F357cGEdEoYaRLpifOB9qpb0/hncHzjoRZcHVnwTtj8
g/wXrg5FVtc3YmmH/0iJvLl1Y+ik8iQ9sqE5WJQhjLPTMbTzBqHVxCwWmDbme8NT
Vigo45xSa79wTd2BqmEIewB/49RYTWo4f1BecKzfLLC/2ZO5rAGHgijOcITpU5uO
14dZj5Nf89rX1T9o+Y3hJJQPSl4erePij8iVUBv+wet0qVv9OsUxpMaQZA9hP5tZ
4z1b7NFKQ3LXEFPyN2RU201KOxlIj80ztbH8iHnuYMHPkLFvtm0ZDNGCTU4/8ypK
tbP9yIx8jcQzQo1BiSRC/fDrozMZzO5/r68YyaWqyBPsXF4ujYri9/lrHHHU/OUP
3E478pLts6/Fr+nUa3Twub9B+2H2X6RR7kzqaznQU5ft1fj5HUSijaEYGbC/jOaV
R3nv6CwM6wOO6kWqn27ZjwXW/m3CqcpfZXqfM4U+Gpv6HpopxRbse7IT4hkJoBpC
d2jvLmXu7FX0036iuleIXsDs8ZpphX6591Th8fteLIyR8EILcApvvg5agd9rzxZ1
U/CDAmdif+PXLHPNxuDoGVKaeITGOA8Ae8rOKWdnOyet4kJyvttD/JIYbOMgkrTP
IbqpNpe9Hkvxg1vPNeUfZdv4RXj/D1hgy8vhwq/f2d8DHZf0/Lw=
=LUvo
-----END PGP SIGNATURE-----
