-----BEGIN PGP SIGNATURE-----

iQIzBAABCAAdFiEEc+tbA4yQN8Kp0pD/7aQIiVMRQW4FAmojrFEACgkQ7aQIiVMR
QW6mTBAAj4hw1rOZ6mWQjTRQVOamfbl1UWtDmk5Q5T62/VItCGd1uFReN+FfuYed
cp6vxzIN/hhQOzDXMKgItk8s+KclBJ5CYVdMunCkxRKdh6FS8/yYCMiJYkjL3yKC
JqOd+ZTkWCftR1+hB24B/yxwMfeLywRTVhYhryQWwkBWOEIk3KXxrgP+AUI1qUXv
a1T3XzVOIuV2DLWgtg40YPhRcnGFvRPMcuFO47PllJh3jp5wUwsxyYiLVTbjatvA
ZhITpUrUGrB66dU83GXT7n/y8XXyw8YNBYnJjNCW5l0ZxEt941XOJrUtmxnus4Ke
8auEXaEMjhLf3Qt1ESIuMhD2Hf7CdZiEyFbuhPQMoQy5Yg24YVD6ntuJbccXCZes
beRpDcGtRFxRkSF7rlWE/3ixSCw1gflqtTxBeDFojoeyX+EESyrMRv/+9A1eEVaq
XbuDavXI5rPURihHuyGTYgI6Luotd5AqoaTOOXb4MHqGrhOMqGvSQTLkh/f7ltyP
eLK0JXJPHZmZ6dKn1fz3LndBRVzYkYJwMQ7je9BKOl9xpMzWd5BD71/IhFxx4mEe
CpuF+kcPQIabGvN06SrV2vO0y0FsQZCzPttrmRq8TtdBkrQ512Q+byOVbYN3ISQ8
trXEeAfCHvUjruG+eQWkXAALOjd+eYQILifZ9GTzJl0SCEpdId4=
=g0ho
-----END PGP SIGNATURE-----
