-----BEGIN PGP SIGNATURE-----

iQIzBAABCAAdFiEEc+tbA4yQN8Kp0pD/7aQIiVMRQW4FAmqDVqEACgkQ7aQIiVMR
QW7P/A/9HRF1w8WjS37EeKDmKCHId+apOyyDNZx/KGHqVCEajBtPqhDdiNsobNe5
z9SunvVmcTtvWfUsN86Lr+hccvDyDA9yr1/35ZcyCE8LguJbmb7bI/LX8WdPJoc2
YLk980UUWgy49EHLbNriIhMpsIpUv+6ljp2EnLKaeS5ukM3KL96LiC94v17uxfJN
wPEEIkz2N80PbEZXQckymA9AfvclGbHgALFHcd5cLmX0B2WaABdIDKTyCuLgycbG
EW16cbqF8J5NNhAwqjIbDG2F0KZJB0GrVZ1eGbtvFSgQaMu3r/haU0uq01tuia8s
xyeS/y4Y7wm2I3hFfGKSRxYBUrYmF3rl81gsMBAnWTztznnjtJx2vEBPQzr0VYeH
Q2tY4PRA4A7205GajM7XBnJ0w88YuO81SIKaFndSyMd6lCcp2trNpub0Z6hlrG6/
StFE6MlvA0Dur+UTts3Sm8jW3suasyvm3RNZUtUVRmm/LLbVUisMn1IxZLuRmLIq
+SFHQCDETcRXwdnWThzdOMfjqQ8C9WdVXn1Snfzl/xIruW3igEQmimF+94T5TGYi
gT+1jeW519SyMuZiDG0RGvHnq8hanhQ2CPC5gMsIBIkY0H6B2bgoB+XPmH4IwClD
+INtxd4wea/aar7JsWYWDhJDMDupr9X2KapFzaPiLVMm/mRmbTk=
=SBah
-----END PGP SIGNATURE-----
