-----BEGIN PGP SIGNATURE-----

iQIzBAABCAAdFiEEc+tbA4yQN8Kp0pD/7aQIiVMRQW4FAmln3x4ACgkQ7aQIiVMR
QW5y2xAAi//mAxbfhbWTKxTiqqltWnT61efjkC0GgHCk2YGQPS7fSKNt7C2kNvR8
53RZpOCnA+JRrRvCwPgSBzlw2wAWvgSgV0we2hMBNV4Fx89DBKZcA8Xqe1OdQono
QJ0EERhreuvtEDzPe6F2lMbiyBgtD7lsV/d2HqUG+B2AelYpn7e75OdkcPNdmY4K
8ScujO+Df2LOcN+T4DkrFSuMnepoILDQbO4tVHLGQtOoXuCct8L2tl9tw1OxrGs+
FdLCGklz8AzXRmhfuAp2ISu+7icEtKfyApjo6BZ4vMBr4O1M26glJpjp4NWMaRud
vxiK/uCxa494xkbXQ1W1BogVo3EuK5wJadQM4Tth+mceb4XQsQHGiIilNihFT2yA
E5FNCQFzcaLpSy020Gt2qjzzgHKlOWZqd6QX2pm5coBHVSzzYTrL8xofdBZUsIBz
SenkI8pxPNljwcoIswHRYm0zufT5SUiSnYfpzmk4L1Mg7EWk9/EUE4OUpAVqJh0C
ucY6DRqF70EM53QYmDhm4ev5pcqDTp4WLWC7s8p+AvNQJi3b0r+wC2x238EO6S7r
I8mnhxZ+SadiMsXfHAxpM7K2kTTcDXavVDt6a/E7CuEnXg9jbyjemoO0GNaxFWGS
3QtE9Wej4iscZ4omTmBi8AV0tAnpw82U7ilvHsSi+32jDaDz47Q=
=rd1j
-----END PGP SIGNATURE-----
