-----BEGIN PGP SIGNATURE-----

iQIzBAABCAAdFiEEc+tbA4yQN8Kp0pD/7aQIiVMRQW4FAmoFEGcACgkQ7aQIiVMR
QW5lFA//dzCCdGRAdMrjHSeMXpSNraCeRn25+WI/W/rQq+KO4TNsl8MY0pdYITCk
3i95Qli6gybOIeilZdbBbh0a5KiBMCmKMiscgqfdysRxifOG5dn+DmvGZyRmvyNh
rCfIyMWlVCjne+VbFgelXU98lgh/wmlwtwQIhGSAZMuqrdKMdvIFXo9VrD0U9TFc
XL+I1mbzRzpMLCpvmmEEBAateH/qkLhDbDjjDTNwCErRlGemIeDm6uP5s8ncFl+O
A9pVrT/6O4MQGgaUzsrRMTr3GsSr6KCyDGuOPKPxHLEBme6KRDYaNfvArpLuATaE
uNza4SP3SxQauUK0LFou2QLGjQ79SJYrDC0h6KRktF6NrBj7MdWP3xPmNS9QRcqM
n49blrO9iemwtkySiQzIMhfkbrBOS9wFsbkGPS8gJEHgbvvY/vLETXC99jpOK9Qi
LjAIwQku2v4NBdt9bbsNmvoqjZjIfaDh6NU4tJPyIo4B6BZOvTUNhAxcWTI4pfu8
/wXv6l6s4Ghxfu5LC0W1FFL3FNla0ZQ8mPQd+vz3Zx+sRBF9m0joTmWhJJpKWaBN
mYU+vXGRdd8hxtR1Y11rSSUuFCQhDG76YPVG9RLRj//mUDNmQaiWDtZHEREcABpn
EO9+/QNPqGVPGFQr4DYw/kpkIZoX3ov5F9mYflrniIG7Tz48BlI=
=dDs5
-----END PGP SIGNATURE-----
