-----BEGIN PGP SIGNATURE-----

iQIzBAABCAAdFiEEc+tbA4yQN8Kp0pD/7aQIiVMRQW4FAmmngmIACgkQ7aQIiVMR
QW5Frg//QPqIMLVIZaWwYfsCCA4gw7le1c6QCjGHejIsKvQOfP8Z/Z/fRXaSzWt5
G48ZlFzTMpbu+daoZL6Kslr3IDkEcSuB/HpEcHDzGbWBEeWiSXwIpe+MGdLCN4hT
u9Jl2BW6a00eZPBUyAPzaRoQVgAwv64VnFCGlCB/imvhXh/1mPF4A74wFNl8qW8m
kDpgemGRIM/hXSquoL+DlFlFo9nAp/SsSSOGHar8ADbhfQxPMqjKBQIA1uRhWtJO
P8arUOAhl5QYmk0zQzEUFaLfJnMdTsHEnvLaZGhrq/NX+dkmbQum8d9I8FpPHZqJ
hjSZMZQ4JVIRsqTTJI7S420T22NTbVwQfPYAzPvzfPci3d2ePSPMNsWyDjkHFNET
npMXUhhwbD2oRNEqjON6zvEAVJ5sLy2p4irSEtYHsD8lbIfi5ren83cM6XkLx+lM
JRUzZIPXdsozmGxHA6RZ1Z1cXdZKKbHPWdmqrrC7/M2vu1oyG5dLiOx4o46+cyl7
Gujz5Hi9Woe48OPsMsv6cOUmhpRePIiqP27Z7rUC/rQjwBfBKDxEUEx233xoOoaV
PoVzv9V8hlAGQnpEqrPXIiwi8qdjWQaq8fXewrICwGoekHJJSTRXMvgvzfoTuO/o
VOgz22qxx2X4uibzIEKTnMPwQNQB1lKbZmyJYu9vtih9jDVPPBg=
=Uq4G
-----END PGP SIGNATURE-----
