-----BEGIN PGP SIGNATURE-----

iQIzBAABCAAdFiEEc+tbA4yQN8Kp0pD/7aQIiVMRQW4FAmmzN7AACgkQ7aQIiVMR
QW4cng//dBvYYyzK8yqIm+HjJEv0i7bBocXpMusrcwJnvJf/RkG1RQNibvgRAD8H
sWWzHsOSIXZ2+PInh4Y+YuxGRRkc/Cfs2dDhtIkydWcUyxcj4qULZ41KG81pzfT7
MZim4KQLdXARE/Uk+A6agt2jO5V1qa/dO6qwppNmkXM3zhn32Ef66EPnTihMuQLN
8WdqlfVwI7QlBBKHx+Gm1e/XgKkopD8U5XlvCtw7Bd3uJg8NI/dTK4jLLGnZIJn0
QaX5bIq+0xC6EI1mC1CMZkSpGc4m6USiZL4WWw0DmeZHfiFWeybKLTfCl6tMufNo
kAPRkGBzt5lfJ46BN9wNEImyvEtGATX0pI/W8Zgmly7nJXdK/2YuI+qvnwGIMqyV
gkGqfRVq7qiKwjAK8sDixAbCOEsUxJ5fji4DgIX9tPJ0+Hv+iaWM0nfu9L1UIe9B
HTXVBybQz4ZyC57Fjp5Wd2sDfSdtzXIfRw/8E2RVDOa9P4OoSC8vvlVFk4cLY2oW
XixT67qMrWnL0Q9o6TK4v82EcB0qwO9o1eTvVQgoChmr8216h8ukpiKmFQ16aYar
vOW6OthGRVMuR1APJYF1nYhTe3lFruscZPeggf80d41Abj827ROkL+wLVcG7rU5b
HyQRIVTbwZY2p0WzRdMFzMYe3w0uAu5g0t9+IE5SnhqIdNRzjQ8=
=fi4z
-----END PGP SIGNATURE-----
