-----BEGIN PGP SIGNATURE-----

iQIzBAABCAAdFiEEc+tbA4yQN8Kp0pD/7aQIiVMRQW4FAmnVYL0ACgkQ7aQIiVMR
QW6A5A/+Lc5niR6RXx2zmmTEJcO7FEPEfJKAjTo2+hYGPZqsYVCkwifSg5zSZE13
VVu/x9PAiy6JRogSESB1eewrLSZmp3EgmpPyBVPSyToV6lo1nOktK6qlE7H8RsZ/
G+6dECnpSU+F4JecuZtrPNFMBmkm46zs5OvR6XPM4ZvKVYTIWAlTVcjgyJbkjadU
pmXmU5KF8B2ue6X5mHNC2TqDrgkDhZ7Z1+0wofakE52E3fvxz8ko/CHD2Z89l5qS
4cRKnBQrCAzkaI8BQQBeCL6Svm1oOMPP8iRJn/nE9L6HsDoOo0DkGxYTrNQ4/f79
5jwzji/BURknip7j5oPecBseUenYgaoDgxprFiiw5O4g3pn7Rm8Gf7bK2OY4DmDH
aWrChOZAOr0x7ZJebkiW00gNK+0ms7eqMnUKKvqXjt0d6ambwudUzUyC0N0/Xl32
uJwtkwVdNflJpZQu66aX3EFsKyGcILDC4Ik8yLa6U/eNS0njPLYUGvnto8qGMEg9
oBFMCJ+QcOQhktEE8ParV63teI3NYZfBjLRvcaUWXL//DNmV/k1qOdVoF5ZVy2gO
NZenYQG4K+6QkPyO7ZOTKC+8lxwGGyMotNTBNCqfXu6JxDzX+PjDUTSThoz1UPkb
2NNvr4tZrdABNohN3AD//U0UjGVSPJJgS90f1x8AGCZMps2WXHA=
=2+5S
-----END PGP SIGNATURE-----
