-----BEGIN PGP SIGNATURE-----

iQIzBAABCAAdFiEEc+tbA4yQN8Kp0pD/7aQIiVMRQW4FAmmoJ5UACgkQ7aQIiVMR
QW7Bug/+NnqEopIzf764edjRPlfQCRjfTog/9vlpz4S1igi5j1TQ/8Bg4oEG0zrG
ILH7s3biDVwLaMPacyFZXI1mrBEivrCOIvOuKjECljLRZRqeP8qP8BjQKQtl5dy2
FnX4TxBCVEzTNUsWWXSXS7B6gQr8ogIRxvW6FVeeFAAiy5tZBDkfHgEMqqJYoHo5
AqpoDk7KpIKkdsg7h+H6pJbvTODKS0gDhsK6ozM5+hBxmk67W7P1Avlkj/lcPsXi
fOxXrtnQMUFVeQh5tBojqsbZEsPzNbjhI8kGES3XMVSxYTxWwje/bY2QZ2wdj/nZ
vgktITbOytyJnQiQCv4T92D/RVF5rMyJm/76DKzk0+Z/OXzbbmBLMurxGECQGRpc
dWtT9EDopHMVNNBjMhn9+bExh5aCx7WYCqsJ8kBFdaj7YkjgbjU6Vzsf54qnHaBo
sshoW355rnsovoyxhfEeidQA0uJxpMHgZsMm+QYv55/XmFerNKd/wc4zk0YLQ3Jb
R4WqC+f6dVLqSvM0G6SlvETwCEyWjG35p3AIDmgLrVHRdgK2Os3A/HvvOqvfigNZ
yq5ZyHBQAtiR//HPrSuO5Fohiyqs10W5ulj58YAFmYC95ntwG6tsohp4gioPif8L
bab2ys1/nnE+rmW/XC/pjtie0cM59qWSp+QXuWUF0lmio+C+bec=
=e8Ft
-----END PGP SIGNATURE-----
