-----BEGIN PGP SIGNATURE-----

iQIzBAABCAAdFiEEc+tbA4yQN8Kp0pD/7aQIiVMRQW4FAmprz7YACgkQ7aQIiVMR
QW48PxAAvLMnK7uLcpLCjYH1PcghHOZqcitDaD+z33wlmJPEGYgKNkNZoHBPTFm8
c/mnC1zfQne8eBhr/iJw4Rbdh69dgEqCyU5Ytz5TDImQ/pVIIbbn9T6KsMaynRuS
Yp07nEC9V79scokOauq1fFxPA++hESL7tynTL8A+keMdDmS39rmo+SFtVKXlw4S+
OFivRE6btZkjfK3w4ct9v1hJFGeDdghXmc30tlIRyZoSpphtkD/vDk2bkrj5OGhd
5TAkVFEkPmPlzW1YCU8ejAicAZbPLuwnvEV2kNXeyqjd/l/f86qRiIsTGmHIKplK
E1WELpuJuMJpYWXDA/7wWSBmxv42b3hfrVCsh6uc4YODefYvCkzjqh3/iMfxJSEV
6cnfqY4G5iRrFMYzCT3E4mRc5Lv3vh8zTpUvkYh9+TXtX1LCbUFwjDdhrPoywqM8
kOk50t1bmtZJLe+7wdk+xhB7Hc76kVyTdSvGO9hytXDjapCzUElUhfA8pLXUh7PV
O1K+RkmzyehH2394eyiFW7qB1ep2Jro86iYpRGZhnNWD5Ar0USK+8FuMl5qoFpYL
9MXPm9T74slc/noQioYVrCf0Bo/0/99Wfa7oEyKqSe+1m5MeVhyxgW+780KmUN9j
E2YWf5sNjSlDntIYJH1vpRTgNEMXnjtATOjCzB60CeCy9gh+PZQ=
=HUFa
-----END PGP SIGNATURE-----
