-----BEGIN PGP SIGNATURE-----

iQIzBAABCAAdFiEEc+tbA4yQN8Kp0pD/7aQIiVMRQW4FAmqDVrwACgkQ7aQIiVMR
QW7Tqw//YsUXeXuSD1m6g8CM6nGd0fxmNLdJPg7PemFHiHIeQkGp1NqBVwFuWdiE
2MUhTEDBXLZ9awdkswdF7G2G5jr0yV1HSlWb/hPsH0evn5f5P3OYXAh6PAeESdPM
BcItQjZvCCFswNULL8guINjlz4+SYc1NmFBi4HiXiXIIv8MeUQaU678zhlmZpCnz
R2w6YdjWn8FPma7x7g6CP5NDsxuxE0pxhW5e1gSz1iEV0CXF0d71w5w81Z495HKw
V6YtYMC8TbY1p3kW14fAfc3G4R6Bvw+rWW8335mkFeQ6MSJ31b/qmnytLjmKDa+B
c6mUehdlFJlxxPMVLE6TgkEtlLAClVx0swr6KeD3mST9ingIct2mSyvi9KjXo6pc
gop/II0lFhrGxeofXJ8N7YuPgGmcd7pFtvGCDH84umv8MOKNscTfkG9s3icsjDXG
x9Nrzeh5whgUPoqmJZSUaunu6zyBuHuoLKRPCGknVsXATbXjVzKekgHFbX9wIX7U
uJ0P1whiaicZF5hShAyvUepDVGX99kdqBioiD9nQQKE0gA0ajFZX75Adyv8bNs/H
LvVx84VEiUIA7cz38VEt6ELFFWpBpqdPHmspPykXV4G6WMGAEQkc5h9yr+JyorgC
jau1YU24fwVzp+cHQzYOyzHozt5vVEgDRf5d8hbyRIfPd4qCOCM=
=Z/hq
-----END PGP SIGNATURE-----
