-----BEGIN PGP SIGNATURE-----

iQIzBAABCAAdFiEEc+tbA4yQN8Kp0pD/7aQIiVMRQW4FAmnF2DAACgkQ7aQIiVMR
QW44wg/+KqZ5PyH0JQqBF3jZXWJLg61RGHBs+6hMnq4oX5Le6qBmdwfgVsbpMB1H
gJiThtZASy3LxEnenw7ke9d/GQ13Xdck8aGiXzwrvaFPzO2rT6YWwGsmuG9PLKkl
Y2nbgSSFBCutjlRw+mBXa3TVylQxA9E5IBkHYhQ4TLpGJW7NpqTHEX4IbrEIgMTH
2Z/GhHZRCbtrChovEqu8vFHoJiG16jGoPxpmRbVYYsN3p5jWl52NLu5rw5/G54DA
ODs97a7i5L1tHMg4njqGgEy3XrftFwSClCQPWIYC9NdOcWNPmTTBkIyR+/Hc9DTK
U6mANCMHsSnoQaMAGhKl/rBbNZrj7M2sCu5ib9Rqh/xdUTz/FJMxSvfS4wctBZFm
SvGNObtHXSumTrkz7iAfgJpy3UzbHaRrQ4kqw01d/aNZWdTRsusBXcWnREBvVc17
gYFxZjkZjkPaWiUzJ9+tY1PLnV2NW6t82W2LyjswOYYvtvj5hydv/BisQq8UbLUq
3POfdJsk7TP95NIA2VSVxnFLWg2qQ4uDVByXi3ue7aNswDkI/4g7/OOcQ932aNn+
plPNCoe8XyngnwO5YIJM5eB29qzgb621q8i6KoZqLZEVxKmfwLIbYt8NV29b68d9
w3ft28FI3LBr73rD2E8G+tWpmpAmojVAUFti/bw2OHHpj1a5wBE=
=t2/m
-----END PGP SIGNATURE-----
