-----BEGIN PGP SIGNATURE-----

iQIzBAABCAAdFiEEc+tbA4yQN8Kp0pD/7aQIiVMRQW4FAmmzN9QACgkQ7aQIiVMR
QW6vkA/9G8yfvEsOVMP8PTaIW2wopRY1AIPkO5Qtgb9bdG0l7CKcVf3wIC7JD/Us
9lv7HlF10JgILsZVilQPjTibcZ1uuYQbPgNetTbBB5sC0GVQYF0/Q0Y6mI8ciy+z
uEf9djAcPSXAMdBLX4qpmH6a/Cczh7hitFJaTNA4aI4kGwuof+SMMyAyY74vZp37
DH1CVNchsHi5I6S5uvVwozVtR0b2VzFezDmfcDLa9IDXK+FIVKIP+DcCvkP3YFQs
wLdNHYY1APq/lTv9t9b0XDmyO7r2KSb22yU3zamQoOQ8R/11zlfsiHfNe52UoNla
1iuPq1hkAUBN2lZVR2nM919TzU9e83gW7zv11lZMtvyEeVmRee6Mvp52wHjktfRs
oo/U0CgoHJ27VSfpw9OBTMxjWfaOP8xnH2w/SPjPkdDV0jCzDvL0DRUZXeM+C1K1
IzIa77zi3gdnNU3w+kgxddn3Q/UIlxFhatVKSFZjFTRYDVTqfFcWAauKh1vbPmPP
/zdgl8en5xORlg0J4F8aPGaRx7DM/O/0orks0KxfIVgcF+KPnC54HLenYzDkeXAq
y/pZSJFjaULzC+W/21v1lD86qc4nUF35nzBbTBYZaG4uYSKti6iS1IGt8oSu2zkb
Xu0plHhIYMH36SdT54vRKEKSWGLvvRVyqsTLXP1443xPmXJM2aE=
=X9cc
-----END PGP SIGNATURE-----
