-----BEGIN PGP SIGNATURE-----

iQIzBAABCAAdFiEEc+tbA4yQN8Kp0pD/7aQIiVMRQW4FAmpfxXEACgkQ7aQIiVMR
QW4KhRAAjumRBTfH7zGAEa98Yg7DL1WXo0JD4aZnzsVBkFKAqQaCg/j+ddGE1HjT
JE+g28eRbOghdOWuVKjW++w1t6Swu9yyf13V0t1pnC7xD7t2MHuDeg+dgRhiIsQ3
IyN3z9VtNfF2kHX9SPafvmASRhCkBPiYtzuxnbbHbgzUkxAq8tX4Mpxbe0NT7ad1
LK3o8aRiZ5OtH5Wx6YSNjgA+q+qWXXzrSP2k9chNuG0JeZi/yqZoMqNjlzbIgHVN
27vM/sQe5HpyaQXv4gHLsXAolP21SOnkpTz+jpNy0IjiPh4ejzh9/GJpDkgJuJ7m
uEECIKg7KQY7VWaDB5F1IdkkQnJ5kWDFTufxE2IbwFGpFDW2Xi5SbujS3ivumMuZ
KT4/M+lGIVqhcewM++Kod6Z9r7ekYNXdDeLqhbe1NH4MvqAGUt2IYhIPT/F40HW7
pQYczEHQGv3fjsQAh7YrtQxfZVVGPivimzjGP/xZA7hejfyv4Hqp5hrs1mH0Ojrf
MmFOvXv7z8Ab81DNxPmRsrNIaA26BNxkRi3EDNDh5DdItt0GiCJi5BgnSmBpumuA
3bxzdfEjJcwc7H3YfH8hAokNMs+XDUo/2Fd4KumPjYr8PH2rp+aA8xVPlkeHdHtu
9ZveXjweDtJfD21jfC6X+EwbL6d1NdGq8thf72O64llNpF9K7dY=
=1v4l
-----END PGP SIGNATURE-----
