-----BEGIN PGP SIGNATURE-----

iQIzBAABCAAdFiEEc+tbA4yQN8Kp0pD/7aQIiVMRQW4FAmoDV6IACgkQ7aQIiVMR
QW5DYA//XnkQ10nAuMt/rKhqZfnfrmLYW9VxlrymEY4e6zInYc9vaOIWh83YBTDJ
FNFu4nZEDmL8jgey/v1T0iq+84mbg+qDbypdfl6IPw8Rry1KD9pO1JWZwibCU0O1
aDb3BXJRD4Y6t2NmW8xVU4dmTk8+iqLFHPGpsGtjW5oQY7TLG5LlIJouEXpmt05i
AcpqNbC9vCffpxaACnzrkGcUfflEWqu7MYl3+K6gPZmYFazJfKMWum8BJveg/3mP
8ZimpFL8jdp4lQy9Losj167pSQKLmUf5UQwOUV6vw2/7T5dOwbS/POKH7IDzd0mR
4BXdCbWqapW7c/bSWy/GvnItrVnp+qWY2sKzsiyhjqkbSqz6aF0eT0AVZShPE4Qq
1KH7QAliRuQnxvnTViC3noY8d4wVKoOJbYGBrepyh4XTWf51LlFqCr4RZVnWe6Tc
m2HLUJJosffI52zj41tH3v5/LGElwR2U7s4NWtXVK3GrhN3WqOU05rhwvR7P1RZl
MvnZHNDOX277WKojhBkSrrHIzzx4h7O4jhlNwQPO7nuQ27CLP/RcEHI1XBBDxm0J
6KUw8jCcT3ol4wWWBGfxbRAACC/csGGjdye93HmCQhc+IKqNLGPHniH5whR1ufam
vKVWfkspMaI6bYYzu31LT64UevMe+HcM19TMhjawN1tv+ZYKZI0=
=/ecY
-----END PGP SIGNATURE-----
