-----BEGIN PGP SIGNATURE-----

iQIzBAABCAAdFiEEc+tbA4yQN8Kp0pD/7aQIiVMRQW4FAmp/prUACgkQ7aQIiVMR
QW524A/+JSjWYf57PZViFLHT79w/8jJ/rkXzwCIm4qcjgWXrvFXQq/DtXPmUn976
lnedk3z9ylj4BwcilzXTb/OLBE7D/iTBPIj8l3O9c7uvqt7fwvEBAL8DAdpNlto1
vJwrqAE1v+7RiwvUSg2Upkt2QAEztUJBTKxPvZnkHZ58ar5kIZLJJD54MZ/7iTE3
wyrBMVLkiyUDgeuoBWhCCtRSYvB8PSP9Usy7GGjJp45KyPFVrPtFt94nAsNlUlms
zVTT91PeE8IKVxpBLIPID6Ey4CjzQ2/gSJnKbIhqE8UxhaUYNN+YSbi92UAP9U4C
2k1B+7qgOIOlsyP82UJZISaizM6Dmg88o5dDI8r+i8A3ADCuJydnuL/7qgm7WHZA
u3zsbo2eohjLmnOladyawHqEcfxOg6ta//rajcwYNvBeRCj2sa8et+lPJcCQIOAO
BTt3RCMELLF5lXSmM/cpJQKTAb/H4yI9BfSQr8rS+L6r0vNHLXu7//jYZDnI11xm
GCNIUpqy6MACo6H5UG7Nk98Kvz/lAslkq5q8DjDiGXX4O9R+JBQZotlWwREZia8V
wJaqtXIgkMifh37uFcVSkMryT9xLJYba6C2HT6P2hCkdyryI2lFGBDo0WWMdqUi/
EcnB/qhqtPKZJb71elYLEADqdg5FR7yWDXm2jPOPl2yu5H0AzCM=
=+9HP
-----END PGP SIGNATURE-----
