-----BEGIN PGP SIGNATURE-----

iQIzBAABCAAdFiEEc+tbA4yQN8Kp0pD/7aQIiVMRQW4FAmnVYPYACgkQ7aQIiVMR
QW6WFw//UN7/4eSy1tIO/tUVhfbAxGWEeskQUJvDH14bWMCZ2e2ZJxj92J7J6Aeu
EQx0suVEH2JJqOXLrKkwumTSddNoDup+dghY9CVkPG9YWjISSORLwU0Ex5fLW5S3
LeCeCLvZuIjSdp0UFM1xMSkmeB/Cn4vBQbrzYNoTdnZ+gaP7vDa5jLreplm9a1by
ankXqBq07EKo4uhaVFfOsuEq6ru49ANURA01q/LsB453Gk+PDZNYB3cgepAJJOwi
s5Z8PMd0Tean2k6RwU5gOslJLBB02e5wRbUp+qrG4j3wLhh/JaX9Ukg5IrmmQFMX
gz4YErMMH+rhKs6fbB8d/X8LY+C0L+SUNfYlNoU+TQ7J8LiJ3S1Nhw8h4S+jlNkx
fZ0ACp+UwrVVQI/sTAufg332i/I9BKrGaR5ldSKev7eypLy3ehEMoUOv24+knWeG
liS7savvoqIekcuGUGOcnaC9VxPZ3RDrkTe1RM/XCsI++5+q0hP9NltJYvCVJnYH
jdPHIAh4AkjNjHmhbjVuCXPM92bJRnfEZjEl+4EmVKfSQOBCv2Z8HelxgO6IXang
QDT3PnfY/jUHp162V5YzONVIu+fnuG/fAmYfuLSY/Jqi2+xf4siPEoJHq4dB52DF
ODP/g4zkwZ9xJDwQx/JBagCTHEne6jVNEKIezVOw4yqPaJzVt40=
=lTOq
-----END PGP SIGNATURE-----
