-----BEGIN PGP SIGNATURE-----

iQIzBAABCAAdFiEEc+tbA4yQN8Kp0pD/7aQIiVMRQW4FAmpoivQACgkQ7aQIiVMR
QW6M9w//Zix9Pu2g35qQKGHK7Gx644upMk0G2mxO0zYchkP1foh7XrLzBSZcDI4q
dvuvLcrbGpe7KVZ7Dgey0yUCjdaT4W4ykZ8pz2ZTBcrj4rLIjhdW7LtsS+oX12gf
jSTA+w2T6EXiGiyhUjCHkGfsibBewS+fklYPyNvLxT9OpRZ+CHnF3/Dy1lWaARZt
PrUsgCpaxEktDFC/CskfyuzGjAOoJzLkAoWXxHGAbgjHvKSs2qpxQH5fPhe/RgQm
oKDLmjDC2bY3YyOy6N5sjP04LsN9PbVl/D6wMcYnBEuloph/HJQR3R8c0aiFpMG5
9+/6Er2kPLKXZ7D0wX711ncye2pN6bMwVK2etAc2JubyWCFWOQpc3NR+9oMVtuj1
jR+MA2mbCdHqtqCoxCoL5kFIwtXLtZIC8UT3v4qUVcf7H06dXrnyulC5AQ9MZz/G
ew0VXPmF057z/tKAocn9Ij9sHGzaVhpC5R20sdHgEiTUJsbDOz2WMDuzclOnEnkO
xmQQtW6+f9XUY0qTYOfFg4pwDefqZkUHE4nRu0N3GbXZJlCKGGhj2u8hVogSnPe7
/7Xc2rEL7orzlhGY7o4b/6YS06XySc/UwFY7aeervJPz7729R2MBBALOUGvHJV7N
0wUGuX6fYWbaoDWKnL5JuhdbbtGnxe3dJuSKMOO0OQWNk+qkTao=
=nEkr
-----END PGP SIGNATURE-----
