-----BEGIN PGP SIGNATURE-----

iQIzBAABCAAdFiEEc+tbA4yQN8Kp0pD/7aQIiVMRQW4FAmk7miYACgkQ7aQIiVMR
QW5IVg//VLbgqst9pv2FZi6HCuo+x9kL1BKM885KwMRfHtV9i2l0CYrTlyKG22Cm
vIAcO130Z+fViKC+DZ3BWNeN93KtykqZHsoOIwgP5nk6nO9z+HhAxQwf05ETAEKT
FC4U5wvkXwSnwWt5CCjLuo4zRhNWmpLFottaAw+BBNAXfg5ky77kKWUqY1rm6dSU
DgFawaVlmT/RXCYR1y4N1B9D9iOjHJl1VegEdkdQ3eibxUnXyb3JgNU3zCPkYX1e
c/rdT3EVaFucc7qsHgZquSaY32jRP+9Iuae9Ui+eZ+wzhiBYVI9xTPoOSOzBhom1
jJu0Z5uNkXWurE4DOQaqUw+JR7p7eUIF45dBlKigaCrT47SBUeNYQ3ha+F4FlSYC
lBs+8M6oshZpPaaRgsTkV8GFDFePCTgg7K8+rMSxUcOY5xk+IxrEtf7WxyhdtwBz
xA4l13RUQnkTfsp4CNmCrZx5tgqpRLUr3S/eLGdeEJiQedrC1Sx/HGVp5zGj//n/
2MO6otSke037o6IAsxMscGwCuesmK5qczzHi3g2w3WULnsawmHalq/7DLi94Uw4x
yOczJr29j33jpDAPo6lsbm8mPuXe8kUoP42lfG6NkJKgYoYEAlN6n1DbA1ka2ACb
n8cj61IixpmaRsZ22D21kcLaRvdNyPN5TvOVqd1ZY98KwSuyUBo=
=rmGJ
-----END PGP SIGNATURE-----
