-----BEGIN PGP SIGNATURE-----

iQIzBAABCAAdFiEEc+tbA4yQN8Kp0pD/7aQIiVMRQW4FAmqHA9MACgkQ7aQIiVMR
QW4tNQ//XNrNfMlJRO2Igm10W6J7EshKOEpAXxvek/PS16zxzpWqBSkxEwx3C6QR
Q7z6SIeEAVHGuu62GgYxYnEhfg8tw+b7lV+75zwgOh4e42CbPXpMzRd0s1ghzxSv
7ns/gw5JhT70FlinCp7OyZ+XLf2/x/rTDMyV6zX4KlGjNt+xSbK/eWdKSjoFMdKa
sIy7ruwL3FPiawfQmT3YEU8djMMjwGzlR3WXWUom+UW3+nU8ViCMehaXRKEurxnr
aQtnc5IetDpLkzon7O4LXV+xjeNjijWf1rNjD3KcJWXsitJpNc+PCOygV8QwPeoo
xTdic8lPeAE7QICHaSH8UotRp4hSADIK4wI573q1Mt7qg2GFH5iaKLAF5TReEX8l
EHy8aAN3I4k9f8nNtehyOsDZWcyHrhNbCocXe05Lvfkk7JRMZnbq7nDW0kYRxqpq
oBX7HzP9AEt5ApvDMKVhOWHWJuIkecQMH9afsN3nMjTL+uxx0tAybyeF19mxNMel
WGQpLHDYkCH4nYY8EXFxkUOk/LYaLCcyS1WfiUPgJ/tONSVbzUQns9NC49238t5K
HdvKctG1vkSD8ytJ/Kgc6mg8ZjukWrWlalcXimmFRuF5EXGeA59LcKTKgv8fpSVV
5jKbMoHxifhRRgWuzS8xcc1eAoi5LzxCOfd4qxQRXvgxKcaXLbs=
=s/oj
-----END PGP SIGNATURE-----
