-----BEGIN PGP SIGNATURE-----

iQIzBAABCAAdFiEEc+tbA4yQN8Kp0pD/7aQIiVMRQW4FAmptLkcACgkQ7aQIiVMR
QW6E4w//braamu759S00hyWLpS1clAuTuER7xcoPchFrZeZZLsDQgOpruS1M8ZfY
T3DDsPOADdTNN4jFt2c4uJqwb6LZ93N9iQ1Xeiji48dGMnrf2z9HMURe/k7aJLC9
7jyKtY2XEoixLoqeG6+NNx+EqyqHFKeSiA1Po3ICr42Zfci0axRdo6KpYALXBeQI
Rx35NsqDzEztWAmq926IZHJngR+TnaEjrFMZPbCjz92OccbyrXSeC7P/pOlF5UbX
BwVkKEoAtzZDFmttGvz/zfCbL/tL1a0vZ8n5Jqpc1dFeuL9B5Lb/ieAKfg3VKZZy
90baZMc7K0xj7sJHxC1krkk+z/W3YkVXpMxkq0ibnBECqEv7ELoQ0iby+USc/ce8
nECIUTSrmBInJPGUkuLeNkgmk0orDVbFPcTN8iOoeufzfldwQ/vlurf5fl0rzoyg
+qutOSsW+KWac0tZY3FfbvHXuFJMpYSaC3G3MoV2PxhaUyhH+DefKvb6f1UgMEtI
duhwHE0nipquoKsnrf7EPW/UtZKgn9afs6a8Y8GZS/t0jQyt1B2rvrqgaNEWm4HS
D2RJcBD/LDGJYAB6RdPHinWatncoDXLrr2GyF5YhUP4GCVzHJoDe5G7m6PDuSy89
q1BoacQJJrR0f9LEly7pedDKbw8oaxxGXTWteiYaSNkNlYDybIk=
=ZQW/
-----END PGP SIGNATURE-----
