-----BEGIN PGP SIGNATURE-----

iQIzBAABCAAdFiEEc+tbA4yQN8Kp0pD/7aQIiVMRQW4FAmlo+bYACgkQ7aQIiVMR
QW6Rbg//TbzhAxZ2XHhfeQKcQAw5998VqGREJdAdYJ8dfrv+7hn3HmtFjA+T1sXf
KgSHP6P4iOqf3HazaoAjQ+CKEPYvxvupI9VIF7KFzKgtlBxlwtcLCh4WKVNpIcuz
9M3Guy9xF7J1pz1Ff7z8DSR1e8FhkQYTFFGezlb4KyYMngCP7+eCGnov5NsvNTuV
nzoDjy5AgdDAbv+Dax7jcBaEkKznyvL7B6o0BGF8UX3IsDr1TTcjq3UKZTYLwodu
r137uYyGiz/GVGeheq7B7TaL7ARziBjUUk2WF01JL07DRBHMFkzsaiO+UNsN+pu9
nb/Io92Gm1PC5nRZW7Jl/XpwgHW9Nmj5zLT8/33xsbd446+q2mLcdMt/GQLDBK4k
c7URBAEQU4G8+g8XSZWyaWGjpigRYZZey5fhRSbCuV07lznN4bd0tnYVRKfPEQ3j
xSB/FtNyMiii4yZy1bJZ+3o1RTpujkqyT++Jq1UGg81EXoSFoVH3iQ25gLj3P5sp
KnPEM9iipCvLIwEEqCAIlFr9DcyE4hfbrkJ6VEkRDW/no7p/s35qVPJol8UUUYwJ
1nBkR83IT4pSep9bo6alNZ9x+IEKfFdRNmSFWBTALq1XWsnOqTPhzX6mjtM/7MQu
VOfFseDdrMIPe4pfHaHx4a6P21a4YNWV6mOgAKfcdQnrIXqxxPM=
=+Uo0
-----END PGP SIGNATURE-----
