-----BEGIN PGP SIGNATURE-----

iQIzBAABCAAdFiEEc+tbA4yQN8Kp0pD/7aQIiVMRQW4FAml0G8gACgkQ7aQIiVMR
QW6QchAAxmz/6ggpYADNwclJbmUhZmn46UIWIroBAQjCVIRrpmXUdpip94AvdOuv
DBSMK2hybXflra+qsiIlkcWyecvim3uRnYHnAL7IuyaLEsdefNBS8r9han8Rphwl
QLgf3iN7d9WBQPfj05+J7Kjf9eR26bHXusjYjn+x2DAAPD8M+Lr4luxpMTQrx6kW
Tpu3gAmc183Qs+hODJCEI4PQS+eJIeQ2/H9/KnzYWuk1BYOC711yECj+fXmrqOaC
C0t3HI3QBSQUmoeaMX+CAi/+C0t1C8MsCXXLR+JHZUHglPIxcGOdPADPQpZMUk4p
a5kXO5jwpCDqIygdkTnnqQu76Gc691i4A9qzJNZ23/YnrKM6RxXr6JVkXRc48ZEz
SITesqRUgbkC4q2KtITDUQa8YOHEunNeUpyafI3UB0BM9jv3sdmA+LSJ5PEkWDKZ
4EORmsiKNDKspDHeJuni6yFBSmxCg+srjdzFTTs2KVSQj1QmTX2r45CWlwZdvaqy
bMkqcoVN/twm9UxMbglr18VDQvezoiO+59Mkw6+5hPpS3nN2r6QMQkN0C0G+lkiP
XUo8Wlj5GfTPY7IBOdyNW6YOo8/3q7baq17pK5yDjZAcYFke2oPKk9m+3tCMAP5R
KBbKP/Pqo9yKb0fTMBumM8blJlP9w0H1NLjcyiEquzcL5yDL4dQ=
=c0vV
-----END PGP SIGNATURE-----
