-----BEGIN PGP SIGNATURE-----

iQIzBAABCAAdFiEEc+tbA4yQN8Kp0pD/7aQIiVMRQW4FAmnF2EkACgkQ7aQIiVMR
QW5B2xAAxu2M+HF2Ls6NI/pn3W2qYd3JwghYfNjGpW4f6Cr+7UAqnZyZj9iXrtwh
uyYmdvU+vUCGomDEj6P4itSCOG6OYSmLvgtxpmS7U3UhK+lESgfI6i5xDC7OWJzP
eEayYcp0n6b+9fTAIHJW9g3fD7nBBxofKuqdToH95x0pGIPI9lgyJ8BYqDopxpqx
KK1934TBsvjc4G2mL74n7TmMEIEQxEaAf+F9wCB/qrJk66fPHEfV4g+OT27Kzdtw
vEGkxnfGFcTPnM9gFzjO06VEfIMje47B7fCuxz7Ek+9Y3CDrhYZV5CWKCoSVEzIX
6t+lBBWNOnp54GchfoatSOOdZK4McgMeem1m9iNAvH8Q7azf+k8cBPr4um52aQO1
LRIW/ValdJu6iwO8K2ejW+B6wiz1kqb7xDxF0ocLnl33OAUwHsq00MMnTVQB0ftq
PprmBaeUY58/Ov/B4MsSlvPkkX5EMAZlFUWq/Ez6BnvG/SCvxRleAn7FkP0SFP/7
TH1DVERtVVA/vxnW81PfnIcjitXE98kT+r8e5GvlbLkKB49qADTy4u0GDzVQyaHb
BcECRnflILgxwlV3LJIggV483rRKzwmMIQQE7U0tgdwI5cDiRDOCTcEzxTBqMzEf
cSCSaOM1+2evR6xmgAVVzogKhc2/xZ5pGsX8O+Fa0UPTQQLY7cE=
=GDyq
-----END PGP SIGNATURE-----
