-----BEGIN PGP SIGNATURE-----

iQIzBAABCAAdFiEEc+tbA4yQN8Kp0pD/7aQIiVMRQW4FAmmwRKEACgkQ7aQIiVMR
QW6c/Q//Vxr1O2jkv+gx45kmA8FY5S3un8pVNam56BFrSzmiuI8uyEUYh6Jd01dT
rB7ywee/wCQhUBA4vR0kzzAeytXPMZ7Sf150gkg3IadoHh9UZrVievZ2NC2nP2Zk
0Unr69CX1XqJyAQRMoTwWnkOrSqli1TUV5LDGGmKmKEwKiCwcDZkOcIoW9xSGUKE
UZ2OLMZDDJ9LecUbAXbBwJrhCPw3PeK0Kd7J7oQG0vQZdZvtQYjkAyYOC4HjChIE
yibJ15kmhEeiWZ127OzT9y/nQMk8Rk+XlELAl4ltuJtRyctpM1IRUBa3Z3CeJh8y
qwZHtflKf9ewPiymYvGjKV2I3BZ4ay84FScD1FlytZ9uDJjSLFUiVk8Irt6YGvEt
G8jFPRHtpaGkYwu6FeTCDSjAY7dBBRLbGlLiggT2CwpHBJzX7KEIyGElwle7ncoW
0klW5d5mjNBoG4R/wKLQ0cyo4b6HwFc9nCz7ohI365RAI/ha6XLT3g8mYXahNg33
ze3KHXNkNuxqdTtIntGeGFCOhDu4m+rdQfRIoeO4uJ38fvcDD6zHn6Enx+Op0r4C
MRgiPAvueloQ1OptXucq+vl4b52pK5Yu6iCVgg4G5tms+AD7bAijUHHYJifD4kH9
v/mBEkX3yO7j26wNmBD75hMDkxJu+2TOhsCrXfXIMdAbnARHAqU=
=kEjM
-----END PGP SIGNATURE-----
