-----BEGIN PGP SIGNATURE-----

iQIzBAABCAAdFiEEc+tbA4yQN8Kp0pD/7aQIiVMRQW4FAmmFCgsACgkQ7aQIiVMR
QW6RPA//QZowJPjJ6SNbHq/YOIwY9z3SE7+qBh8JX1Yso0cMCSHW+I3g0E8JMM/e
URqwmGVWW8Oxj4Kby+shsYCt9Njtm3N38A5MYGLu1nA/wGTCQR/nhhpiqHgrFzde
GPPD37PflhWt7He4HSau2/RpuiuxarAf+LMJ+/93sxPML/fGSa6UFkKjUnnia9KV
qlaBBAbRaGaG0SuDYBrCRVUCNgPefyaQ8pjvRveoELdmiSJdWqojlyzENCa7ceJZ
nEYoSGv2UDtM/o4bijOKE9A2By1RoO8MmVwg2Oi1cj4QIkZ4uFrQyQU8iPorL1yo
qAJci2Ijgi4M3eJKuOXgtVYuagDTlWbGhRqIIeymteCqQD4zVmEGUr5VG3hKANwK
UZ2f9WseQ+Ff49qLkG6oWQJGYwV6y9b0GJz1LisLPkDP8wR+xIKWW5LtkBQkMSLz
bw2dPnYe+huqhP6A46vddCwjc1G5uG9NH/bQriucK1D9riVgWbUiWs4EC2ql8t6e
HkpiMOjJRxj3QSy6onpI1fXB3NQ0GgseE994HV4ph3+yWLgSLyiieqjjxVrTUtiV
NY/GhXIUoTwyQmx5y3HHyPCZADUDnHu2EBXTSUbuxCjqWgTYvT3+ZMpPcfS+TDZH
feLdUyP6+xsqfNlZxaWbFd/XpEprKv1bKgjWL4o0GfHNeMicl2w=
=0PYt
-----END PGP SIGNATURE-----
