-----BEGIN PGP SIGNATURE-----

iQIzBAABCAAdFiEEc+tbA4yQN8Kp0pD/7aQIiVMRQW4FAmmDT2IACgkQ7aQIiVMR
QW5ytw/+JsOr7lmFKik/8/4w11WjENg/IKu/YRm0PRyvIJb893rdDxLYm9NIZNaW
h9DfEgV9Rvg7D4F+nYfV8pZU6xI9TqInXXUjCfh78Nv3XcUTmQ6WVXklOU1dmytg
0/Ko9kdWwDli+14mVKf6lN4HAHKI1o0n+4SLpOMdCPqG5V0SF/P8N3Iz90WO2lya
DzZm5NBE2gwgLM7p3dyN/sRhB/6F8DRxZ6rXVM2WsYVrKi4ukcMUafyY4pxpM/TJ
Ku9Z65HJnS1nqYTVnjsqL8oxkWPrNBPyqhAPiEU2nuu3JkWNakKjrKSJOZAEdtf3
NMO7/7Tip/5Zdwe2y/dOi0kK1BsM79+HqsOqSo7a12OXM0h95HvMg0X+uBTXzzkv
U6VK33SZPzz4feHORduBJxm4hI8IJOyVZ31MVQ6vqxzqcwt4LCJT2Td6BUpnVBWB
V6IQoDv8E4P5xoX6ipb3EIHukrSPkdoAlSfWf0cod66yjfbr3pNDTwqfZr2YlPFM
gzRO+/QO8DQnYGlp1FAPC5XEPaXk2J1bb4wM71vWxXkpNFRS2fVVWKw+eKLCjmxP
JUyoWOx2k6vG3GW7BxFitg90kRKW3NaptXqifKC8f3J/2gYVMXnujgmr3Pi3SgLL
+IHuTSA27hsyjEquFCyNFUHbRSfu958pmOdUbRLeOyqzGAPs9+M=
=/DiI
-----END PGP SIGNATURE-----
