-----BEGIN PGP SIGNATURE-----

iQIzBAABCAAdFiEEc+tbA4yQN8Kp0pD/7aQIiVMRQW4FAmqscHgACgkQ7aQIiVMR
QW5kmxAAuTDFM+h9ZrC247a4YbJ4ublXpMOwIFGRvkrRvP8fJRtwVuNKhGnlo0QQ
bI5wJyW9E70Ye7AmKkktkDGl8JhcuQA5uM8yhAkoQra1B/zYMlxjpVouSh5d1nlC
QdO3gYgZoM0Fsh3D3XerMfwt9zyXYWDiLwAXgj1NlS9mWaT72A0BbQRxxLQgYliy
wejEa5msNoMJ0RhGu+GugR3YK2OBU9UkYzTNzHTmvn9rJAKt1rBE7uQp7OPCFoMP
YF3Sy8RL6S4tmWbxO4KrITZmhP1+KzSonYS90CTmjHpBGAarxgqjTltd9IBL4txh
VhGt0/4TrsP+/p1SQ/GgpV3og3AgV6y/YeDqvCDxibe/u9bytGtlVdTk3f9fnP2E
p6TxRaBWSEaquJCJYn2Uo3smklfw4294giqXcf3uCfBroJGiICSk9WkEvFUj5wh9
7BAVyhHya/g4ykybctf3iSm1uNBhIdHm3P3nng6ODdMcoh+SvCq9kMi/dul1L5hJ
iLpjFD4O0PSHtLmlIenwYIAN/8FEXQ+tEWLEBcRoV/+QXCFP/dO4PK8I9KJaTHNs
48t4pc5PuoWxAYGLkZmxcBOElLEANKlQk8UOdcQfaA4FAj2rGpJBBplcrD9yAJcq
CwcBK1uRgO0NrryRm2IqMswzPGFpu8pBTJ//4aLv8p235HJFg7M=
=dCfB
-----END PGP SIGNATURE-----
