-----BEGIN PGP SIGNATURE-----

iQIzBAABCAAdFiEEc+tbA4yQN8Kp0pD/7aQIiVMRQW4FAmqjgisACgkQ7aQIiVMR
QW7/BQ//ekO9yRccLmCzdB95a3I/jNIeeV5zXhWf6XvnKoD1Yk5q8CZ/A4Ce88mF
jXHZslwwjlJaZu2KGqcALJlJn9YAvTBTsxTLxQf/i8i6ckLWhd8Ls6+61gaTUafu
gwUBs7DbLccmzDOCiGhjb3J8pqyN31bs/otvWYyGV8+9fN+KHlfwSxvXFtcpt1L4
XnDle/wkISCm9meuhNriEpdGb3t7Z1SwK//3Jwk4ITvSnvYhBZT4FFecrGZ4CK8t
vePVrPyoo4lfSl+ha5UPQuqF8BVi2aPV+m37C7XNAcL6Y6E/7UL+1BP9BEtxMTAn
eWv9sB73kVZBY0OnXAFTFvQj84gwMjsQjKZ3EbXp8WFhiSjiGjfda7dlCIhpv8dV
IH6kZxpmN9y8dR2vLDUt2MVmI6Q/8kxXl/8/FzdWenW1GZiQoO/0GdKGWHmFRAiW
cs02vc9v0XBATQUlg95RTu9qA6JOYb0e6nY9rT1vnAPPVCQCsWRHse+MnJfbnpGv
TLoq2D+PvFAptTkt+LMFk7Rbm3FE3lf+Bhd/wor6U0uolJ5Vwumc1ZOa05U/EsQB
33grjWqV+0z0Ox9Oz46H/PBWipViPVokgYM879yjAXn2u6Q7vFgtkf6HIWrL8uZS
TD8g8a8JDJOi3bDyvf5kxfmD65HrZH24qjoiK/d7therRoEsqU4=
=/MzS
-----END PGP SIGNATURE-----
