-----BEGIN PGP SIGNATURE-----

iQIzBAABCAAdFiEEc+tbA4yQN8Kp0pD/7aQIiVMRQW4FAmoz+m0ACgkQ7aQIiVMR
QW47kA/8C6KniYkzjAgZOCqXkCMK8dE1jsbAMW7Xpmb/MEfEVjDyaJKsmLI9faOM
EcBRrsu3C56MpO1vGGQxgqkAfVGbQl7B2aqqF9UKWOa1t/zV98T5UQ7v4SlsCMAQ
fJeQus6cYyI2aCi+eAZ5Uv4lK5x6R7fLLkwJaECwaNyprUxP+5oaQ6/Phu/9Dccg
hv6AyQ/KyVQTJ8B2927hSU2RBd7yGSP46no5K+FSc/8BB5aQ+2f1nyXmeHTOl4Pp
KSOiDcU5sVQ/DV4cNLcaLV5HxMzFPpqCsu/e9sCC1c2t4QDw8Lv+vRbmuCmSNN0o
gvNSR1Aybg9TX63n0CamdKCAmVafMDQ2TyXb0k7P99CBYkbqqmOaVZqGXa7gcveO
1BLKQINTbgUlpRlMPzbiPdtYHRBzCH1OkbHas3XpfVueSngTTFkXhrNIOVmMbaMs
PnHIPD8TZ2If1jYpEQeczc448httFB0VUMrOrb6pbkzgNolYiV85uVa3uqH3ZIWm
SCOqzLEMMQrcAhmsHlF76Dg0DMjWhv0RNmpHTiR8uBANE1DYGSSUsdPj22r5L/Eh
zoSC2a0RNDr0LNHoKj6eFv74dFQmyKA2RyhhLVv8n66c3QzvRlL2i+bCC+EVlQXx
OzdJIK2+4Z+0B6fN9MK8a69E8uQumi3SzlZUK44mSmYWm5ud0E8=
=GDCS
-----END PGP SIGNATURE-----
