-----BEGIN PGP SIGNATURE-----

iQIzBAABCAAdFiEEc+tbA4yQN8Kp0pD/7aQIiVMRQW4FAmk7mjAACgkQ7aQIiVMR
QW7ivxAAwhZFVPDGFO+JzeZgiDA7wNTURPbcVQO/4+gDBKKMwIrH6jY6xcBQISRJ
pLv7B6eGDNrXSYPXxYFJMsTvoHfcxIw8nZrTW7zeBJXTk6LW5B1U6iRbANJgEaAO
CZVLepX2z05uKHXPmOK2LaCsBNwGYLJjjEOCo+LVA+jvtyBO8hDVqGSuzAt1c7HI
HcpYXUCWAP3dtGqKkF4LcAOTGRcnZqJUQks/a26PYALwQrAkOARgL+mzrVxM18Hj
Djl2v5YSnhXvd8WoMC2wUzgtStJsbK9BpQm5GihUL8l9CcIlcvxpqJqGPex1VndZ
EA6QR/1sMHmTdnQhfXjcmpDR+yn9Fcsjfue/yNLv+C/TnRovvmoneCXWsnPyabCB
cSkNtac+GFFYyKANdCEH1Ugkh9Wr7/L/5J1QkOnf8banmsu+HKcX/QWFBdT3Qm7I
qDqKyVuPGT2mnwsuWQ80XPTODgtIbA9zTDFDkIXwCy4bb9YWLEuwSI0KbmEnS3K3
pBRkumB2tl24bsmtnRxMVjbhr/byK+xNvFXpgUfDH6Iqk62TfCM/g7Lz1f+WpSUH
AvMYifdnluwwhWW5CcfMCQz5pBgjaq2Etqc2HNMNUSOg5DcfUuiRTZvNrICySxHC
jbRcazHSVp3L1N+7pbFucgjZwmPRBocqROyk97pqrpcouCDQJ68=
=+sgY
-----END PGP SIGNATURE-----
