-----BEGIN PGP SIGNATURE-----

iQIzBAABCAAdFiEEc+tbA4yQN8Kp0pD/7aQIiVMRQW4FAmnokTMACgkQ7aQIiVMR
QW4jPBAAwqG0KGjNSgMGJEBRTr3PQw3mQhqpRLyFsDVf9teFer6Cjh5xVWWfJUzL
lWu3j+ZUu4NdezNNS2BtaBH1wu7JK0uB59E5OGp6sD5mfS8wrz73lFURJaXAXcrm
JdNn6BgU+xEnfO/JugnUoFr3Gp2AyOVmG5z4PvrQbeK7XPMGgiIDuHjQ3mgE5a/s
fNqfTnpoN85n5zgDO2kewBXKL3jLyVrcSmEg7ZXUX0sKGcLBzytQxvsqHAW6zU3f
PVohdCdSVJUgIUTx0jkl3VkrB7YVhM/JOwoLEug3ViIN75UEq2RFtTbbxZkHl47o
38FYZagI3sJm08wworFKRN+Exc20cRgVD/p2r5IogYY0v/TOVJ85KG/uqrL5JCp+
Zf3vuv9P/eUl3fJKmm6MrEmT+bujqslS+MQtYoKSUDCbukyhXLxogb7d+KJBvBIF
dkpTYiwz00ix+VdgLmpWLQAzzmEWvSkJ+fITVHWZSFToWFtvmT2BVScGYe+QFMm4
B8EPXSRhScVaDMfgGv1Q/THRSABtO3YiZ/zVE+9xhADOrC9ZrMuuRR7kPfhgRHFF
cLaAfzwl4SnvegibjYWFJzkbPsxt2Xe3TlsMpYu6n+WF5wpTRz+s92cF0a3uftix
cx99+2IwQ4jUC1zB+QYrjDSyWRpvQHRvJmMsFDM+4lPAmIQ/jVs=
=Mu2Q
-----END PGP SIGNATURE-----
