-----BEGIN PGP SIGNATURE-----

iQIzBAABCAAdFiEEc+tbA4yQN8Kp0pD/7aQIiVMRQW4FAmqz81wACgkQ7aQIiVMR
QW4RDQ//YawE5uTCwIN/l+sjUQkQO3m85NUs6lCAcWi6PgxNfJiDXmI1nwDwJWBF
tkXvckDOExNgSjt4dFbrUS5jnMjIOsIAf0hCoLoUu7eNW0VprcPqFQxdJkus7R61
H6xUAJTQuKZtfWczzY5ef2E8HT/tdzuMLnj58SfbR9jEn8ExT1xj76KRHFqEyyAO
StMEkDjqsEuBNqGC1IExgSDGrJ6MWJH5LZsyDB1PkkmwsAgK+JhFVF9dVJE80A27
Ii12N1Q8C9F+MUxLqkstmEqvMmKaYBdiKUSNwZVf8GvhXV9uVyMXZ3Yb8CXX0wlg
ArUKl3c3zUuLaCMvl8OjbNMwbuhlswh4wwJchldVWIv1NVdHSWICGlBR7hHAc8F/
RxYCFLsnnvh7/v/OXJIA/1Y/+hZg5VdyOj8RTPJbGIsoeV/fExpmGAUSYsiKAR7b
9j84+ONOLiVnNtaCB0+w/FOouaw+jWmrYh/iwXWy49zhbkDJD1Vc3zylU02CpYwS
e4MTGzh35lJqNFK+nGSRNnNeegfNltSLsHZVM2tWFpYjkJTSaeUtAMU3iyzxXues
b+yrQJoYazTLy8pwkd9qJVGY1Vs/mrhptIeGkoU2xZT8PiILaNBcrk/eYXngxH/p
AzBU4J+FuZQ6OI6ionCbk8q23es1ltue+9/f7k+3oLrigqVfHFo=
=Ulrs
-----END PGP SIGNATURE-----
