-----BEGIN PGP SIGNATURE-----

iQIzBAABCAAdFiEEc+tbA4yQN8Kp0pD/7aQIiVMRQW4FAmo8oEUACgkQ7aQIiVMR
QW7HbQ//fpV4bwhmyB9rQUaTBq+4zB89m6gVSd/xeF2mjK/FAIP3nBWxPFglV3cT
pVzgb/LtW84VYcQvmi++UjYsQL8AimStR0tq2gafNOg+DWeHMs8XDsD+3sV1YuZ9
fbK86/LYrON+aIvWhBdCmEl4LPgYoSAFeR0sDOt06MmLf8lc+uPrbc2AXODdiwSe
SH80ufUeoxrrqzRrGMhLP8kN/Fpf5AXTnovWBP3pk6gRAGKW+zhIYN+UjDEGPvOJ
OGsFbTsr8sHg42p7fA2lxjPglJ7S/QkqLLa2kB9038iOpLYSES7kZTNb0lzQ9G0V
d8EIUTy+95EoGIkub2Ahs82/5mWahAdvZ0CcHgciDqq7MhzYQpuo70GjAF8QjfO7
bZtsE81wOYozgClI6ZX+2GKMJSbcykdEWsxPmvIehyjJtMDcJhQE6wbHcZkXyAAu
FEaYRcSpUgiIkJodOd7G704VZNa2pEcieNuDLCNsmW0SESekPj5aNytkdJJovwpJ
u2CoFEP8DTiWjg8N9Kh0EjP94b0VCvMk60ED8PEX6Oi4TXo3QS6hg810Ank4zSDC
dwOmR0VPQbSQ20so6KWN7jq5Jt6s7mmFs/raG8L87mNTO0ADAJ3l0uk4uvdRZYkx
PaNZwAL+61/dmoWUVwjPr6MvIa9tdGWWPYcbkqEfTDVoMO+bh9E=
=HkLL
-----END PGP SIGNATURE-----
