-----BEGIN PGP SIGNATURE-----

iQIzBAABCAAdFiEEc+tbA4yQN8Kp0pD/7aQIiVMRQW4FAmnokT8ACgkQ7aQIiVMR
QW6DNA/+IRITG/3uCj3wmt4Bu9vacUrNWB2uheGjGzWT+HeTzp2Bk8GX9PYaI9EE
nTo+JdF051/me8abBkUEtaxhg4KpHjFBDGOAXT9UwoYZSLQLK5ZRzRn+EOjqCdIx
nyFgKdYThIrbSjvq0Y/udWn/sqRhFPIrtEg5lN/8eHOK/jgVr9Rox3GEOsNKr7iS
VvErbS3QRI2qzvWuS2srJN93iK+TllwwviWLLB+pjXopoDo0/zYdxpmZwdAyUBfr
+nQWLppQLubHOSvkb9K/qAQ4A/PidZlUXSSUXeyF4wmm+2p3e3/i9nR/gH0RjkIy
H60sDdnh5+jalo2ohG/jNYQxN87TyrjI5axsRRaKMz4fBZMnUq/GivxviFhfXyu1
ZtLAaI163A/KOdEEoXmCZvQp79MOdcOnAVncDahQB6KriioAo3TP9Rg0oWhQRucs
K+kiiDgHUpOoeMemeb7ZV/ezsF1KDnayoM4JdB390VuUXZOnBZOwlzLrtO8/IPMu
Z5PI8ABjDBPaqxRTdqdJ0D+P+JN/XqCx2qjqFHXyNfRogebFzQTf5E7sZDAlogeL
w3Gfd9Qt3HOFyBvyNCFpuI7ZnJy0FMYZPbC6eIHbBT2nn4r1d2SnlF/Z1D/OFsJ6
P2zsvN9UCbH0m8ypIIOSz2iyiCC2MHBy31jOV5KCbtux/G3jN7A=
=NtzB
-----END PGP SIGNATURE-----
