-----BEGIN PGP SIGNATURE-----

iQIzBAABCAAdFiEEc+tbA4yQN8Kp0pD/7aQIiVMRQW4FAmnVYNYACgkQ7aQIiVMR
QW6GjQ//Yecj4k3YkVXYJvAZqIcocoM+rkWI58x/B+m47Q7NCbe5a7sGjhUgNg9c
8uuDz7n76fMNDFdmjXReRyLwlGlIPQoO4Urt5BIlfjvuFEREZIN86It8ZFJC0HAg
hyyMsHn9kaKNq0kx5tMIoD1rTQO0JTe468/oEz2sckISd0Vx+mL4ylB1HFJxA9rK
1a98H154RxPjeDDIuS9lm3eSZaOo1UTs2Ec6fxGgF+z+iUV0UyJg4w0YP+ELh6l/
TsXPmoJSif4TndSThh1AyQc4ULbpOcu8+uTM8ATLYhEsjVdAfnWr+u9sR+S5Mwsf
NJykae8IaIUJ7OT8mANtr76N8GyJk+U9QSQVIyHr5d7kVEDxOtiyNAaGt8vYl4oL
JdKc/fMvnkjjPsMB7DYpQxgZ+uk0JfuY0ksmg+Vejr6tqoM+locmD3aVHSSsQlAI
rcasrccPJBWQWboqnjo23ad7nOfXqsmd5rV7nuzUGDAcD5tNTQNGoly8R2U2PP+p
J7M8unpYMB0lW380h0dael1b7e5AkGalXGvygiUOioC5mOfNR26M4YL0sGQbznO/
Rgsxr1XY/LpR7cyprZkJT96f0jjFecNdtSMbjSwbijW0Y4an282V0B6lQXh+YhTp
KbNTxVRfU5DFR7bHFttupQNKjKi1hTDzYT4tGoivOLWT2FPa4mQ=
=w9vV
-----END PGP SIGNATURE-----
