-----BEGIN PGP SIGNATURE-----

iQIzBAABCAAdFiEEc+tbA4yQN8Kp0pD/7aQIiVMRQW4FAmpfxWcACgkQ7aQIiVMR
QW63XBAAiNPPC21m94wcRRqwjCkB59EsTkB9SG9iEjMIWedc2S4DoolI7uW994Tn
W362d2xsPc0H/gRBVxoEhXPMvz+iDupwtoR22IFUEtNA7RcwHbNCRIl3vp9ZcOGI
BE421wt4FAzjzAu5boHq5i/QUstziKZI147R/O76zh08NVgbC3gUm7Or2ZBrMqtW
OuqY7iPibobopf9gWdW7/Na1tg8ydufiiPPezMIfUmQRXYuLUVwSXAGeDLWH7Qo2
DrlyCSPieN2b8t0X62Lysj+oMe4j8OKYXPTA4GsGntjwXnenBHdbRKF6PXY5RszH
ublLbyb9+qgHbOaZwdml682l3mw90kC+r3FhH3XWddeRVKGECA6mz1PCWonWfdxg
/zV2LJFVsHfVM1YCCTl4oxXK/O+jYxPBFH5HUlSwive6l89xVaamSXu9Ikwk9egz
9IgzKs7MkE2J+F9sjcZJ6MlaoMJ7NiAEuYo9PqX1NiIMAp/fjiXlvOki+PZeqa/e
KOCbuhoy7D9/PHcV7tvRqDUQUHKPC/DFYr9LU72WnBsEtMja4cc/eOGOWvHVPjPw
/TlOOT6FYy6XuRXj5kQU/EPPD114pNXZO4t6qZhAUEx5AL/TmXBUj+P9aNMQFuTV
y/Etu8qNvLmOwz7zAiwfODt62FNTDitwBkujkMVF8HtKR2zDm0U=
=CrmO
-----END PGP SIGNATURE-----
