-----BEGIN PGP SIGNATURE-----

iQIzBAABCAAdFiEEc+tbA4yQN8Kp0pD/7aQIiVMRQW4FAmo8oCgACgkQ7aQIiVMR
QW7YGxAApHxIvNGVbl7jC1fbS4JK4oBrxyjOO1HakTeh8aexiLVopI6cgJefR0WM
R3oGZTF4/68SwoK7+nOW9jbE/zfMcIqCVR1SvALJbL6ugo+Hp43/C8q1YEYKziqn
jDb2AFnLP+sUSaNffBIyaCgCAtJvIR3I9eVaqwBDFmf4d3xXi62XBJVnXIS/Wh1l
TFLy4pz7nFZhrfhbLxXsbgO5YSrJrjKlUi81bOLvsizqAJtn17N0DR1drbnt1lKH
7yEPqCp91kZ8yBKTILNf9oBAo/QXPmfyNtIH/rKKHS39s3qC7WiS8bPDpubbxmh3
jDQ65luNdnP0k6VZYfi0Ur6CIfOrv4z9rj7etr1eVK8gttx38tlOcri3tlf/EYOc
AmolLNgKbJKRaNp6xZS3bPJZ0h7AFHJxr4JX9AWLI+2funPai3vIMrKN50DIswxj
TGiLdpIW8fX0KFf69eADin8DUZSLVeRLl37kt+ri2X5bkmVqMTlAz+gxTsbwrtdA
/90RfxCYf+/qcVXSyTsD1xuMbHHp5oqJbHH1WiuID4AgocyM8N1reDvnoYnEX99F
Trg24wZ85f5psCDn8qUj8G107fbb0Fj29soSoMIRvMJ0MlF/FrLg8NKuvaOyESL9
JCw13D4J/+59UO5DgVfMMhhn3nRUlvRcf8OhB/Qw7SLzRmpVyVw=
=UlS+
-----END PGP SIGNATURE-----
