-----BEGIN PGP SIGNATURE-----

iQIzBAABCAAdFiEEc+tbA4yQN8Kp0pD/7aQIiVMRQW4FAmnooxUACgkQ7aQIiVMR
QW69zhAAnh0DnkASiqOaAjgP3/dfcrH7IBoWOkwscXkRv/5uEFSTUm065LJUwnEU
rKhXUez204pz3FABvoQD7eLQ2VV/XPmSBNRcn9i3ZJt8mk6xJbHHk9Bf5P8ml0Db
LXRHmBOHMVsR/9FdRqaBEw7nvFDa5X4JEfGh0/+DP4yoIm2pnCoIf61+RnFMPk8F
xfhtIZSLk7qaeoNa9F5ZOUHojD7uUjwf1Iu3loFzgxxoXrrV3QHyFjFgrk6luPWw
iCb7exjkqa4CpB6fT6WGVQv//VXWCbnXbAmbBKL1BGa+hYnMrdD4hT7+Vshx6e1a
ylMNlMhhIvqHR5ejBoCYOCQU9dyZ+pON97GEa0ZhJ3FDUa+g7i4vQNhzpebwpcbD
B2wez0E8GbA/Icck0DlABVyu8o154E5+QQhB1zOMM9bmIyXijMlEw2Tarq4qi32m
IwweLAa33zwWv6i2hghzxjyRWQk1oB3B5gMd786RW9d6LQ/XGZ7q42OiuTd333Ku
K4M3P/zJM7jnKK5J4y0tiLOrtRtmEK/35XMVwNxwsBrPl0zeKJu/EH2DD4zyUUWY
qfkI59zbm4dGMJJMvroE83vorJZHAQyVBYbfSYSB+rqZsr0pe2juvOmOwklCw65Y
Gtgr4WTTZn7y6ABzN+cSPY+ro5e3pp9NTsjbXeQIq42BQwa8B0E=
=Ggt3
-----END PGP SIGNATURE-----
